X: 42289
T: Weaving Lady, The
R: reel
M: 4/4
K: Amajor
EAABBJc{c}BA|EAABJ.cz{c}BA|FBBcd2cB|FB{c}BJfeJc{c}BA|
EAABJ.cz{c}BA|EAABBJc{c}BA|FBBcdzcB|Jf2{a}fefa {c}(3BAF:|
Aaga{a}fece-|ecef{c}BAFE|Faga{a}fefa|.bzbc'{c'}ba{a}fe|
eaga{a}feJce-|ecef{c}BA (3FAc|de.JczBcA2-|ABJF2FEFA|
Eaga{a}fece-|ecef{c}BAFE|Faga{a}fe2a|.bzbc'{c'}ba{a}fe-|
eJaga{a}feJce-|ecef{c}BA (3ABc|de.JczBcA2-|AB.FzFEFA|
EJAABJc2BA|EAABJ.cz{c}BA|FBBcd2cB|FB{c}BJfeJc{c}BA|
EAABJc2zB/A/|F/E/AABJc2zB/A/|FBBcdccB|Jf3cef{c}BA-|
~A3BJ.cz3|BFA3z3|z2EF{c}AFJB2-|!>!B3AB/c/e{c}BA|
EAABJ.cz2B/A/|EAABJcA{c}BA|FBBcdzcB|Jf2{a}fefa (3BAF|
Aaga{a}fece-|ecefJBA{A}FE|Faga{a}fefa|{c'}bzbc'{c'}ba{a}fe-|
eJaga{a}feJce-|ecef{c}BA (3ABd|de.JczBcA2-|ABJF2FEFA|
Eaga{a}fece|zcef{c}BAFE|Faga{a}fefa|.bzbc'{c'}ba{a}fe|
Ja4gaJf2-|fe{c}BA{c}BE (3ABc|deJ.cz{c}BAB2-|BJ.cA2{c}AFE2-|
E2z4 (3EFA|JceB4{c}BA|BcJF2F4|z3dJ~f3f|
Jb6{c'}b/a/f|Ja3bJf4-|e4{a}edJc2-|c-B3{c}BA3-|
A2zaJc'd'e'2|!>!b4Je'2d'd'|d'Jc'3-{c'}babf-|faefJceBB|
Jc2efB2{c}BA|J.c (3f/e/f/ Jc{c}BAFEJF|A{c}AFB4{c}B|A{c}AFABFE2|
aga{a}feJcez|Jcef{c}BAFEF|aga{a}feza.b|zbc'{c'}ba{a}fee|
aga{a}feJce2|cef{c}BAJc2z|eJ.czBcA3|BF3EFAE|
aga{a}fece2|ceJf{c}BAFEF|aga{a}fe e/f/ a.b|zbc'{c'}ba{a}feJa-|
a2{c'}agaJf2{a}f|eJce{c}BAJc3|e.JczBcAz.JB|zJB2{c}B2JB2{c}B|
AzA6|z3A3/2B3/2BB|c/B/.AJA6|z2EFAFB c/B/|
.AA4z3|zcJe3-cJB2|~B4JB2{c}B2-|B3JB2JBJBc/B/|
.AA3z4|zEEFAFF2-|F2F!>!F3z2|z8|z8|
z3Jf2e/f/Jc2|.ezJB2Jc2zA-|A.Bz2JF2AJF-|FB2z3A2-|A8|

